;FLAVOR:Marlin 
;Layer height: 0.12 
;Generated with Cura_SteamEngine 4.9.0 
M140 S70.0
M105 
M190 S70.0
M104 S210.0
M105 
M109 S210.0
M83 ;relative extrusion mode 
; Ender 3 Custom Start G-code 
G92 E0 ; Reset Extruder 
G1 Z2.0 F3000 ; Move Z Axis up little to prevent scratching of Heat Bed 
G1 X0.1 Y20 Z0.3 F5000.0 ; Move to start position 
G1 X0.1 Y200.0 Z0.3 F1500.0 E15 ; Draw the first line 
G1 X0.4 Y200.0 Z0.3 F5000.0 ; Move to side a little 
G1 X0.4 Y20 Z0.3 F1500.0 E15 ; Draw the second line 
G92 E0 ; Reset Extruder 
G1 Z2.0 F3000 ; Move Z Axis up little to prevent scratching of Heat Bed 
G1 X5 Y20 Z0.3 F5000.0 ; Move over to prevent blob squish 
G92 E0 
G92 E0 
G1 F3000 E-8 
M104 S210.0
M140 S70.0
G0 X104.0 Y106.0 Z0.24 F1200.0
G1 E8
G1 X96.0 Y106.0 Z0.24 E0.3192972964429731 F1200.0
G1 X96.0 Y94.0 Z0.24 E0.47894594466445967 F1200.0
G1 X104.0 Y94.0 Z0.24 E0.3192972964429731 F1200.0
G1 X104.0 Y106.0 Z0.24 E0.47894594466445967 F1200.0
G1 X103.0 Y105.0 Z0.24 E0.056444320882339395 F1200.0
G1 X97.0 Y105.0 Z0.24 E0.23947297233222983 F1200.0
G1 X97.0 Y95.0 Z0.24 E0.3991216205537163 F1200.0
G1 X103.0 Y95.0 Z0.24 E0.23947297233222983 F1200.0
G1 X103.0 Y105.0 Z0.24 E0.3991216205537163 F1200.0
G1 X102.0 Y104.0 Z0.24 E0.056444320882339395 F1200.0
G1 X98.0 Y104.0 Z0.24 E0.15964864822148656 F1200.0
G1 X98.0 Y96.0 Z0.24 E0.3192972964429731 F1200.0
G1 X102.0 Y96.0 Z0.24 E0.15964864822148656 F1200.0
G1 X102.0 Y104.0 Z0.24 E0.3192972964429731 F1200.0
G1 X101.0 Y103.0 Z0.24 E0.056444320882339395 F1200.0
G1 X99.0 Y103.0 Z0.24 E0.07982432411074328 F1200.0
G1 X99.0 Y97.0 Z0.24 E0.23947297233222983 F1200.0
G1 X101.0 Y97.0 Z0.24 E0.07982432411074328 F1200.0
G1 X101.0 Y103.0 Z0.24 E0.23947297233222983 F1200.0
G1 X100.0 Y102.0 Z0.24 E0.056444320882339395 F1200.0
G1 X100.0 Y98.0 Z0.24 E0.15964864822148656 F1200.0
G1 X104.0 Y106.0 Z0.24 E0.35698522993919485 F1200.0
