;FLAVOR:Marlin 
;Layer height: 0.2 
;Generated with Cura_SteamEngine 4.9.0 
M140 S70.0
M105 
M190 S70.0
M104 S210.0
M105 
M109 S210.0
M83 ;relative extrusion mode 
; Ender 3 Custom Start G-code 
G92 E0 ; Reset Extruder  
G1 Z2.0 F3000 ; Move Z Axis up little to prevent scratching of Heat Bed 
G1 X0.1 Y20 Z0.3 F5000.0 ; Move to start position 
G1 X0.1 Y200.0 Z0.3 F1500.0 E15 ; Draw the first line 
G1 X0.4 Y200.0 Z0.3 F5000.0 ; Move to side a little 
G1 X0.4 Y20 Z0.3 F1500.0 E15 ; Draw the second line 
G92 E0 ; Reset Extruder 
G1 Z2.0 F3000 ; Move Z Axis up little to prevent scratching of Heat Bed 
G1 X5 Y20 Z0.3 F5000.0 ; Move over to prevent blob squish 
G92 E0 
G92 E0 
G1 F3000 E-8 
M104 S210.0
M140 S70.0
G0 X102.2 Y101.4 Z0.2 F1200.0
G1 E8
G1 X97.8 Y101.4 Z0.2 E0.14634459420302956 F1200.0
G1 X97.8 Y98.6 Z0.2 E0.09312837812920087 F1200.0
G1 X102.2 Y98.6 Z0.2 E0.14634459420302956 F1200.0
G1 X102.2 Y101.4 Z0.2 E0.09312837812920087 F1200.0
G1 X101.8 Y101.0 Z0.2 E0.018814773627446733 F1200.0
G1 X98.2 Y101.0 Z0.2 E0.11973648616611471 F1200.0
G1 X98.2 Y99.0 Z0.2 E0.06652027009228607 F1200.0
G1 X101.8 Y99.0 Z0.2 E0.11973648616611471 F1200.0
G1 X101.8 Y101.0 Z0.2 E0.06652027009228607 F1200.0
G1 X101.4 Y100.6 Z0.2 E0.018814773627446397 F1200.0
G1 X98.6 Y100.6 Z0.2 E0.09312837812920087 F1200.0
G1 X98.6 Y99.4 Z0.2 E0.03991216205537126 F1200.0
G1 X101.4 Y99.4 Z0.2 E0.09312837812920087 F1200.0
G1 X101.4 Y100.6 Z0.2 E0.03991216205537126 F1200.0
G1 X101.0 Y100.2 Z0.2 E0.018814773627446397 F1200.0
G1 X99.0 Y100.2 Z0.2 E0.06652027009228607 F1200.0
G1 X99.0 Y99.8 Z0.2 E0.013304054018457401 F1200.0
G1 X101.0 Y99.8 Z0.2 E0.06652027009228607 F1200.0
G1 X101.0 Y100.2 Z0.2 E0.013304054018457401 F1200.0
