;FLAVOR:Marlin 
;Layer height: 0.12 
;Generated with Cura_SteamEngine 4.9.0 
M140 S70.0
M105 
M190 S70.0
M104 S210.0
M105 
M109 S210.0
M83 ;relative extrusion mode 
; Ender 3 Custom Start G-code 
G92 E0 ; Reset Extruder 
G28 ; Home all axes 
G1 Z2.0 F3000 ; Move Z Axis up little to prevent scratching of Heat Bed 
G1 X0.1 Y20 Z0.3 F5000.0 ; Move to start position 
G1 X0.1 Y200.0 Z0.3 F1500.0 E15 ; Draw the first line 
G1 X0.4 Y200.0 Z0.3 F5000.0 ; Move to side a little 
G1 X0.4 Y20 Z0.3 F1500.0 E15 ; Draw the second line 
G92 E0 ; Reset Extruder 
G1 Z2.0 F3000 ; Move Z Axis up little to prevent scratching of Heat Bed 
G1 X5 Y20 Z0.3 F5000.0 ; Move over to prevent blob squish 
G92 E0 
G92 E0 
G1 F3000 E-8 
M104 S210.0
M140 S70.0
G0 X150.0 Y100.0 Z0.24 F1200.0
G1 E8
G1 X143.30127018922195 Y125.0 Z0.24 E1.0330027671148347 F1200.0
G1 X125.0 Y143.30127018922192 Z0.24 E1.0330027671148354 F1200.0
G1 X100.0 Y150.0 Z0.24 E1.033002767114835 F1200.0
G1 X75.00000000000001 Y143.30127018922195 Z0.24 E1.033002767114834 F1200.0
G1 X56.69872981077806 Y125.0 Z0.24 E1.033002767114836 F1200.0
G1 X50.0 Y100.0 Z0.24 E1.0330027671148347 F1200.0
G1 X56.69872981077807 Y75.0 Z0.24 E1.033002767114835 F1200.0
G1 X74.99999999999997 Y56.698729810778076 Z0.24 E1.0330027671148339 F1200.0
G1 X99.99999999999999 Y50.0 Z0.24 E1.0330027671148356 F1200.0
G1 X125.0 Y56.69872981077807 Z0.24 E1.0330027671148356 F1200.0
G1 X143.30127018922192 Y74.99999999999997 Z0.24 E1.0330027671148339 F1200.0
G1 X150.0 Y99.99999999999999 Z0.24 E1.0330027671148356 F1200.0
