;FLAVOR:Marlin 
;Layer height: 0.12 
;Generated with Cura_SteamEngine 4.9.0 
M140 S70.0
M105 
M190 S70.0
M104 S210.0
M105 
M109 S210.0
M83 ;relative extrusion mode 
; Ender 3 Custom Start G-code 
G92 E0 ; Reset Extruder 
G28 ; Home all axes 
G1 Z2.0 F3000 ; Move Z Axis up little to prevent scratching of Heat Bed 
G1 X0.1 Y20 Z0.3 F5000.0 ; Move to start position 
G1 X0.1 Y200.0 Z0.3 F1500.0 E15 ; Draw the first line 
G1 X0.4 Y200.0 Z0.3 F5000.0 ; Move to side a little 
G1 X0.4 Y20 Z0.3 F1500.0 E15 ; Draw the second line 
G92 E0 ; Reset Extruder 
G1 Z2.0 F3000 ; Move Z Axis up little to prevent scratching of Heat Bed 
G1 X5 Y20 Z0.3 F5000.0 ; Move over to prevent blob squish 
G92 E0 
G92 E0 
G1 F3000 E-8 
M104 S210.0
M140 S70.0
G0 X119.74118095489749 Y100.0 Z0.24 F1200.0
G1 E8
G1 X117.09636420764676 Y109.87059047744874 Z0.24 E0.40785389105047576 F1200.0
G1 X109.87059047744874 Y117.09636420764676 Z0.24 E0.4078538910504752 F1200.0
G1 X100.0 Y119.74118095489749 Z0.24 E0.40785389105047576 F1200.0
G1 X90.12940952255127 Y117.09636420764676 Z0.24 E0.4078538910504752 F1200.0
G1 X82.90363579235324 Y109.87059047744874 Z0.24 E0.4078538910504757 F1200.0
G1 X80.25881904510251 Y100.0 Z0.24 E0.40785389105047576 F1200.0
G1 X82.90363579235324 Y90.12940952255126 Z0.24 E0.40785389105047576 F1200.0
G1 X90.12940952255126 Y82.90363579235324 Z0.24 E0.4078538910504752 F1200.0
G1 X100.0 Y80.25881904510251 Z0.24 E0.40785389105047576 F1200.0
G1 X109.87059047744874 Y82.90363579235324 Z0.24 E0.40785389105047576 F1200.0
G1 X117.09636420764676 Y90.12940952255126 Z0.24 E0.4078538910504752 F1200.0
G1 X119.74118095489749 Y100.0 Z0.24 E0.40785389105047576 F1200.0
G1 X119.22354286469243 Y100.0 Z0.24 E0.020660055342297194 F1200.0
G1 X116.64807647156273 Y109.61177143234622 Z0.24 E0.39715945945955844 F1200.0
G1 X109.61177143234622 Y116.64807647156273 Z0.24 E0.3971594594595586 F1200.0
G1 X100.0 Y119.22354286469243 Z0.24 E0.39715945945955844 F1200.0
G1 X90.38822856765378 Y116.64807647156273 Z0.24 E0.39715945945955844 F1200.0
G1 X83.35192352843727 Y109.61177143234622 Z0.24 E0.3971594594595586 F1200.0
G1 X80.77645713530757 Y100.0 Z0.24 E0.39715945945955844 F1200.0
G1 X83.35192352843727 Y90.38822856765378 Z0.24 E0.39715945945955844 F1200.0
G1 X90.38822856765377 Y83.35192352843727 Z0.24 E0.39715945945955816 F1200.0
G1 X100.0 Y80.77645713530757 Z0.24 E0.39715945945955905 F1200.0
G1 X109.61177143234622 Y83.35192352843727 Z0.24 E0.39715945945955844 F1200.0
G1 X116.64807647156273 Y90.38822856765377 Z0.24 E0.39715945945955816 F1200.0
G1 X119.22354286469243 Y100.0 Z0.24 E0.39715945945955905 F1200.0
G1 X118.7059047744874 Y100.0 Z0.24 E0.020660055342296625 F1200.0
G1 X116.1997887354787 Y109.35295238724369 Z0.24 E0.38646502786864134 F1200.0
G1 X109.3529523872437 Y116.1997887354787 Z0.24 E0.3864650278686417 F1200.0
G1 X100.0 Y118.7059047744874 Z0.24 E0.3864650278686419 F1200.0
G1 X90.64704761275631 Y116.1997887354787 Z0.24 E0.38646502786864134 F1200.0
G1 X83.8002112645213 Y109.35295238724369 Z0.24 E0.38646502786864206 F1200.0
G1 X81.2940952255126 Y100.0 Z0.24 E0.38646502786864134 F1200.0
G1 X83.8002112645213 Y90.6470476127563 Z0.24 E0.3864650278686419 F1200.0
G1 X90.6470476127563 Y83.8002112645213 Z0.24 E0.38646502786864134 F1200.0
G1 X100.0 Y81.2940952255126 Z0.24 E0.3864650278686419 F1200.0
G1 X109.3529523872437 Y83.8002112645213 Z0.24 E0.3864650278686419 F1200.0
G1 X116.1997887354787 Y90.6470476127563 Z0.24 E0.38646502786864134 F1200.0
G1 X118.7059047744874 Y100.0 Z0.24 E0.3864650278686419 F1200.0
G1 X118.18826668428235 Y100.0 Z0.24 E0.020660055342296625 F1200.0
G1 X115.75150099939468 Y109.09413334214118 Z0.24 E0.3757705962777247 F1200.0
G1 X109.09413334214118 Y115.75150099939468 Z0.24 E0.3757705962777247 F1200.0
G1 X100.0 Y118.18826668428235 Z0.24 E0.3757705962777247 F1200.0
G1 X90.90586665785882 Y115.75150099939468 Z0.24 E0.3757705962777247 F1200.0
G1 X84.24849900060532 Y109.09413334214118 Z0.24 E0.3757705962777247 F1200.0
G1 X81.81173331571765 Y100.0 Z0.24 E0.3757705962777247 F1200.0
G1 X84.24849900060532 Y90.90586665785882 Z0.24 E0.3757705962777247 F1200.0
G1 X90.90586665785881 Y84.24849900060534 Z0.24 E0.3757705962777239 F1200.0
G1 X100.0 Y81.81173331571765 Z0.24 E0.3757705962777254 F1200.0
G1 X109.09413334214118 Y84.24849900060532 Z0.24 E0.3757705962777247 F1200.0
G1 X115.75150099939466 Y90.90586665785881 Z0.24 E0.3757705962777239 F1200.0
G1 X118.18826668428235 Y100.0 Z0.24 E0.3757705962777254 F1200.0
G1 X117.6706285940773 Y100.0 Z0.24 E0.020660055342297194 F1200.0
G1 X115.30321326331065 Y108.83531429703865 Z0.24 E0.3650761646868074 F1200.0
G1 X108.83531429703865 Y115.30321326331065 Z0.24 E0.3650761646868082 F1200.0
G1 X100.0 Y117.6706285940773 Z0.24 E0.3650761646868074 F1200.0
G1 X91.16468570296135 Y115.30321326331065 Z0.24 E0.3650761646868074 F1200.0
G1 X84.69678673668935 Y108.83531429703865 Z0.24 E0.3650761646868082 F1200.0
G1 X82.3293714059227 Y100.0 Z0.24 E0.3650761646868074 F1200.0
G1 X84.69678673668935 Y91.16468570296135 Z0.24 E0.3650761646868074 F1200.0
G1 X91.16468570296134 Y84.69678673668936 Z0.24 E0.3650761646868074 F1200.0
G1 X100.0 Y82.3293714059227 Z0.24 E0.3650761646868081 F1200.0
G1 X108.83531429703865 Y84.69678673668935 Z0.24 E0.3650761646868074 F1200.0
G1 X115.30321326331064 Y91.16468570296134 Z0.24 E0.3650761646868074 F1200.0
G1 X117.6706285940773 Y100.0 Z0.24 E0.3650761646868081 F1200.0
G1 X117.15299050387226 Y100.0 Z0.24 E0.020660055342296625 F1200.0
G1 X114.85492552722661 Y108.57649525193614 Z0.24 E0.35438173309589094 F1200.0
G1 X108.57649525193614 Y114.85492552722661 Z0.24 E0.35438173309589005 F1200.0
G1 X100.0 Y117.15299050387226 Z0.24 E0.35438173309589094 F1200.0
G1 X91.42350474806388 Y114.85492552722661 Z0.24 E0.3543817330958904 F1200.0
G1 X85.14507447277339 Y108.57649525193614 Z0.24 E0.35438173309589044 F1200.0
G1 X82.84700949612774 Y100.0 Z0.24 E0.35438173309589094 F1200.0
G1 X85.14507447277339 Y91.42350474806386 Z0.24 E0.35438173309589094 F1200.0
G1 X91.42350474806386 Y85.14507447277339 Z0.24 E0.35438173309589005 F1200.0
G1 X100.0 Y82.84700949612774 Z0.24 E0.35438173309589094 F1200.0
G1 X108.57649525193614 Y85.14507447277339 Z0.24 E0.35438173309589094 F1200.0
G1 X114.85492552722661 Y91.42350474806386 Z0.24 E0.35438173309589005 F1200.0
G1 X117.15299050387226 Y100.0 Z0.24 E0.35438173309589094 F1200.0
G1 X116.63535241366722 Y100.0 Z0.24 E0.020660055342296625 F1200.0
G1 X114.40663779114259 Y108.31767620683361 Z0.24 E0.3436873015049738 F1200.0
G1 X108.31767620683361 Y114.40663779114259 Z0.24 E0.3436873015049735 F1200.0
G1 X100.0 Y116.63535241366722 Z0.24 E0.3436873015049738 F1200.0
G1 X91.68232379316639 Y114.40663779114259 Z0.24 E0.3436873015049738 F1200.0
G1 X85.59336220885741 Y108.31767620683361 Z0.24 E0.3436873015049735 F1200.0
G1 X83.36464758633278 Y100.0 Z0.24 E0.3436873015049738 F1200.0
G1 X85.59336220885741 Y91.68232379316639 Z0.24 E0.3436873015049738 F1200.0
G1 X91.68232379316638 Y85.59336220885741 Z0.24 E0.3436873015049731 F1200.0
G1 X100.0 Y83.36464758633278 Z0.24 E0.34368730150497434 F1200.0
G1 X108.31767620683361 Y85.59336220885741 Z0.24 E0.3436873015049738 F1200.0
G1 X114.40663779114259 Y91.68232379316638 Z0.24 E0.3436873015049731 F1200.0
G1 X116.63535241366722 Y100.0 Z0.24 E0.34368730150497434 F1200.0
G1 X116.11771432346218 Y100.0 Z0.24 E0.020660055342296625 F1200.0
G1 X113.95835005505856 Y108.05885716173108 Z0.24 E0.33299286991405663 F1200.0
G1 X108.05885716173108 Y113.95835005505856 Z0.24 E0.3329928699140569 F1200.0
G1 X100.0 Y116.11771432346218 Z0.24 E0.33299286991405663 F1200.0
G1 X91.94114283826892 Y113.95835005505856 Z0.24 E0.33299286991405663 F1200.0
G1 X86.04164994494144 Y108.05885716173108 Z0.24 E0.3329928699140569 F1200.0
G1 X83.88228567653782 Y100.0 Z0.24 E0.33299286991405663 F1200.0
G1 X86.04164994494144 Y91.94114283826892 Z0.24 E0.33299286991405663 F1200.0
G1 X91.9411428382689 Y86.04164994494144 Z0.24 E0.33299286991405647 F1200.0
G1 X100.0 Y83.88228567653782 Z0.24 E0.3329928699140572 F1200.0
G1 X108.05885716173108 Y86.04164994494144 Z0.24 E0.33299286991405663 F1200.0
G1 X113.95835005505856 Y91.9411428382689 Z0.24 E0.33299286991405647 F1200.0
G1 X116.11771432346218 Y100.0 Z0.24 E0.3329928699140572 F1200.0
G1 X115.60007623325714 Y100.0 Z0.24 E0.020660055342296625 F1200.0
G1 X113.51006231897453 Y107.80003811662857 Z0.24 E0.32229843832314004 F1200.0
G1 X107.80003811662857 Y113.51006231897453 Z0.24 E0.32229843832313954 F1200.0
G1 X100.0 Y115.60007623325714 Z0.24 E0.32229843832314004 F1200.0
G1 X92.19996188337143 Y113.51006231897453 Z0.24 E0.32229843832314004 F1200.0
G1 X86.48993768102547 Y107.80003811662857 Z0.24 E0.32229843832313954 F1200.0
G1 X84.39992376674286 Y100.0 Z0.24 E0.32229843832314004 F1200.0
G1 X86.48993768102547 Y92.19996188337143 Z0.24 E0.32229843832314004 F1200.0
G1 X92.19996188337143 Y86.48993768102547 Z0.24 E0.32229843832313954 F1200.0
G1 X100.0 Y84.39992376674286 Z0.24 E0.32229843832314004 F1200.0
G1 X107.80003811662857 Y86.48993768102547 Z0.24 E0.32229843832314004 F1200.0
G1 X113.51006231897453 Y92.19996188337143 Z0.24 E0.32229843832313954 F1200.0
G1 X115.60007623325714 Y100.0 Z0.24 E0.32229843832314004 F1200.0
G1 X115.08243814305209 Y100.0 Z0.24 E0.020660055342297194 F1200.0
G1 X113.06177458289051 Y107.54121907152604 Z0.24 E0.3116040067322227 F1200.0
G1 X107.54121907152604 Y113.06177458289051 Z0.24 E0.311604006732223 F1200.0
G1 X100.0 Y115.08243814305209 Z0.24 E0.3116040067322227 F1200.0
G1 X92.45878092847396 Y113.06177458289051 Z0.24 E0.3116040067322227 F1200.0
G1 X86.93822541710949 Y107.54121907152604 Z0.24 E0.311604006732223 F1200.0
G1 X84.91756185694791 Y100.0 Z0.24 E0.3116040067322227 F1200.0
G1 X86.93822541710949 Y92.45878092847396 Z0.24 E0.3116040067322227 F1200.0
G1 X92.45878092847394 Y86.93822541710949 Z0.24 E0.3116040067322226 F1200.0
G1 X100.0 Y84.91756185694791 Z0.24 E0.31160400673222327 F1200.0
G1 X107.54121907152604 Y86.93822541710949 Z0.24 E0.3116040067322227 F1200.0
G1 X113.06177458289051 Y92.45878092847394 Z0.24 E0.3116040067322226 F1200.0
G1 X115.08243814305209 Y100.0 Z0.24 E0.31160400673222327 F1200.0
G1 X114.56480005284705 Y100.0 Z0.24 E0.020660055342296625 F1200.0
G1 X112.61348684680648 Y107.28240002642353 Z0.24 E0.3009095751413061 F1200.0
G1 X107.28240002642353 Y112.61348684680648 Z0.24 E0.3009095751413056 F1200.0
G1 X100.0 Y114.56480005284705 Z0.24 E0.3009095751413061 F1200.0
G1 X92.71759997357648 Y112.61348684680648 Z0.24 E0.30090957514130556 F1200.0
G1 X87.38651315319352 Y107.28240002642353 Z0.24 E0.30090957514130606 F1200.0
G1 X85.43519994715295 Y100.0 Z0.24 E0.3009095751413061 F1200.0
G1 X87.38651315319352 Y92.71759997357647 Z0.24 E0.3009095751413061 F1200.0
G1 X92.71759997357647 Y87.38651315319352 Z0.24 E0.3009095751413056 F1200.0
G1 X100.0 Y85.43519994715295 Z0.24 E0.3009095751413061 F1200.0
G1 X107.28240002642353 Y87.38651315319352 Z0.24 E0.3009095751413061 F1200.0
G1 X112.61348684680648 Y92.71759997357647 Z0.24 E0.3009095751413056 F1200.0
G1 X114.56480005284705 Y100.0 Z0.24 E0.3009095751413061 F1200.0
G1 X114.04716196264201 Y100.0 Z0.24 E0.020660055342296625 F1200.0
G1 X112.16519911072245 Y107.023580981321 Z0.24 E0.29021514355038897 F1200.0
G1 X107.023580981321 Y112.16519911072245 Z0.24 E0.29021514355038913 F1200.0
G1 X100.0 Y114.04716196264201 Z0.24 E0.29021514355038897 F1200.0
G1 X92.976419018679 Y112.16519911072245 Z0.24 E0.29021514355038897 F1200.0
G1 X87.83480088927755 Y107.023580981321 Z0.24 E0.29021514355038913 F1200.0
G1 X85.95283803735799 Y100.0 Z0.24 E0.29021514355038897 F1200.0
G1 X87.83480088927755 Y92.976419018679 Z0.24 E0.29021514355038897 F1200.0
G1 X92.97641901867898 Y87.83480088927755 Z0.24 E0.2902151435503887 F1200.0
G1 X100.0 Y85.95283803735799 Z0.24 E0.2902151435503895 F1200.0
G1 X107.023580981321 Y87.83480088927755 Z0.24 E0.29021514355038897 F1200.0
G1 X112.16519911072245 Y92.97641901867898 Z0.24 E0.2902151435503887 F1200.0
G1 X114.04716196264201 Y100.0 Z0.24 E0.2902151435503895 F1200.0
G1 X113.52952387243697 Y100.0 Z0.24 E0.020660055342296625 F1200.0
G1 X111.71691137463843 Y106.76476193621849 Z0.24 E0.2795207119594724 F1200.0
G1 X106.76476193621849 Y111.71691137463843 Z0.24 E0.27952071195947176 F1200.0
G1 X100.0 Y113.52952387243697 Z0.24 E0.2795207119594724 F1200.0
G1 X93.23523806378152 Y111.71691137463843 Z0.24 E0.2795207119594718 F1200.0
G1 X88.28308862536157 Y106.76476193621849 Z0.24 E0.2795207119594722 F1200.0
G1 X86.47047612756303 Y100.0 Z0.24 E0.2795207119594724 F1200.0
G1 X88.28308862536157 Y93.23523806378151 Z0.24 E0.2795207119594724 F1200.0
G1 X93.23523806378151 Y88.28308862536157 Z0.24 E0.27952071195947176 F1200.0
G1 X100.0 Y86.47047612756303 Z0.24 E0.2795207119594724 F1200.0
G1 X106.76476193621849 Y88.28308862536157 Z0.24 E0.2795207119594724 F1200.0
G1 X111.71691137463843 Y93.23523806378151 Z0.24 E0.27952071195947176 F1200.0
G1 X113.52952387243697 Y100.0 Z0.24 E0.2795207119594724 F1200.0
G1 X113.01188578223193 Y100.0 Z0.24 E0.020660055342296625 F1200.0
G1 X111.2686236385544 Y106.50594289111596 Z0.24 E0.26882628036855516 F1200.0
G1 X106.50594289111596 Y111.2686236385544 Z0.24 E0.26882628036855516 F1200.0
G1 X100.0 Y113.01188578223193 Z0.24 E0.26882628036855516 F1200.0
G1 X93.49405710888404 Y111.2686236385544 Z0.24 E0.26882628036855516 F1200.0
G1 X88.7313763614456 Y106.50594289111596 Z0.24 E0.26882628036855516 F1200.0
G1 X86.98811421776807 Y100.0 Z0.24 E0.26882628036855516 F1200.0
G1 X88.7313763614456 Y93.49405710888404 Z0.24 E0.26882628036855516 F1200.0
G1 X93.49405710888404 Y88.7313763614456 Z0.24 E0.26882628036855516 F1200.0
G1 X100.0 Y86.98811421776807 Z0.24 E0.26882628036855516 F1200.0
G1 X106.50594289111596 Y88.7313763614456 Z0.24 E0.26882628036855516 F1200.0
G1 X111.2686236385544 Y93.49405710888404 Z0.24 E0.26882628036855516 F1200.0
G1 X113.01188578223193 Y100.0 Z0.24 E0.26882628036855516 F1200.0
G1 X112.49424769202689 Y100.0 Z0.24 E0.020660055342296625 F1200.0
G1 X110.82033590247038 Y106.24712384601344 Z0.24 E0.25813184877763806 F1200.0
G1 X106.24712384601345 Y110.82033590247038 Z0.24 E0.25813184877763823 F1200.0
G1 X100.0 Y112.49424769202689 Z0.24 E0.25813184877763856 F1200.0
G1 X93.75287615398656 Y110.82033590247038 Z0.24 E0.25813184877763806 F1200.0
G1 X89.17966409752962 Y106.24712384601344 Z0.24 E0.2581318487776387 F1200.0
G1 X87.50575230797311 Y100.0 Z0.24 E0.25813184877763806 F1200.0
G1 X89.17966409752962 Y93.75287615398655 Z0.24 E0.25813184877763856 F1200.0
G1 X93.75287615398655 Y89.17966409752962 Z0.24 E0.25813184877763784 F1200.0
G1 X100.0 Y87.50575230797311 Z0.24 E0.25813184877763856 F1200.0
G1 X106.24712384601345 Y89.17966409752962 Z0.24 E0.25813184877763856 F1200.0
G1 X110.82033590247038 Y93.75287615398655 Z0.24 E0.25813184877763784 F1200.0
G1 X112.49424769202689 Y100.0 Z0.24 E0.25813184877763856 F1200.0
G1 X111.97660960182185 Y100.0 Z0.24 E0.020660055342296625 F1200.0
G1 X110.37204816638635 Y105.98830480091092 Z0.24 E0.2474374171867215 F1200.0
G1 X105.98830480091092 Y110.37204816638635 Z0.24 E0.24743741718672135 F1200.0
G1 X100.0 Y111.97660960182185 Z0.24 E0.2474374171867215 F1200.0
G1 X94.01169519908908 Y110.37204816638635 Z0.24 E0.2474374171867215 F1200.0
G1 X89.62795183361365 Y105.98830480091092 Z0.24 E0.24743741718672135 F1200.0
G1 X88.02339039817815 Y100.0 Z0.24 E0.2474374171867215 F1200.0
G1 X89.62795183361365 Y94.01169519908908 Z0.24 E0.2474374171867215 F1200.0
G1 X94.01169519908908 Y89.62795183361365 Z0.24 E0.24743741718672135 F1200.0
G1 X100.0 Y88.02339039817815 Z0.24 E0.2474374171867215 F1200.0
G1 X105.98830480091092 Y89.62795183361365 Z0.24 E0.2474374171867215 F1200.0
G1 X110.37204816638635 Y94.01169519908908 Z0.24 E0.24743741718672135 F1200.0
G1 X111.97660960182185 Y100.0 Z0.24 E0.2474374171867215 F1200.0
G1 X111.45897151161681 Y100.0 Z0.24 E0.020660055342296625 F1200.0
G1 X109.92376043030232 Y105.7294857558084 Z0.24 E0.23674298559580426 F1200.0
G1 X105.7294857558084 Y109.92376043030232 Z0.24 E0.23674298559580478 F1200.0
G1 X100.0 Y111.45897151161681 Z0.24 E0.23674298559580426 F1200.0
G1 X94.2705142441916 Y109.92376043030232 Z0.24 E0.23674298559580426 F1200.0
