;FLAVOR:Marlin 
;Layer height: 0.12 
;Generated with Cura_SteamEngine 4.9.0 
M140 S70.0
M105 
M190 S70.0
M104 S210.0
M105 
M109 S210.0
M83 ;relative extrusion mode 
; Ender 3 Custom Start G-code 
G92 E0 ; Reset Extruder 
G1 Z2.0 F3000 ; Move Z Axis up little to prevent scratching of Heat Bed 
G1 X0.1 Y20 Z0.3 F5000.0 ; Move to start position 
G1 X0.1 Y200.0 Z0.3 F1500.0 E15 ; Draw the first line 
G1 X0.4 Y200.0 Z0.3 F5000.0 ; Move to side a little 
G1 X0.4 Y20 Z0.3 F1500.0 E15 ; Draw the second line 
G92 E0 ; Reset Extruder 
G1 Z2.0 F3000 ; Move Z Axis up little to prevent scratching of Heat Bed 
G1 X5 Y20 Z0.3 F5000.0 ; Move over to prevent blob squish 
G92 E0 
G92 E0 
G1 F3000 E-8 
M104 S210.0
M140 S70.0
G0 X149.8 Y139.8 Z0.24 F1200.0
G1 E8
G1 X70.2 Y139.8 Z0.24 E3.1770080996075825 F1200.0
G1 X70.2 Y60.2 Z0.24 E3.1770080996075825 F1200.0
G1 X149.8 Y60.2 Z0.24 E3.1770080996075825 F1200.0
G1 X149.8 Y139.8 Z0.24 E3.1770080996075825 F1200.0
G1 X149.4 Y139.4 Z0.24 E0.022577728352936078 F1200.0
G1 X70.6 Y139.4 Z0.24 E3.1450783699632856 F1200.0
G1 X70.6 Y60.6 Z0.24 E3.1450783699632856 F1200.0
G1 X149.4 Y60.6 Z0.24 E3.1450783699632856 F1200.0
G1 X149.4 Y139.4 Z0.24 E3.1450783699632856 F1200.0
G1 X149.0 Y139.0 Z0.24 E0.022577728352936078 F1200.0
G1 X71.0 Y139.0 Z0.24 E3.113148640318988 F1200.0
G1 X71.0 Y61.0 Z0.24 E3.113148640318988 F1200.0
G1 X149.0 Y61.0 Z0.24 E3.113148640318988 F1200.0
G1 X149.0 Y139.0 Z0.24 E3.113148640318988 F1200.0
G1 X148.6 Y138.6 Z0.24 E0.022577728352936078 F1200.0
G1 X71.4 Y138.6 Z0.24 E3.0812189106746897 F1200.0
G1 X71.4 Y61.4 Z0.24 E3.0812189106746897 F1200.0
G1 X148.6 Y61.4 Z0.24 E3.0812189106746897 F1200.0
G1 X148.6 Y138.6 Z0.24 E3.0812189106746897 F1200.0
G1 X148.2 Y138.2 Z0.24 E0.022577728352936078 F1200.0
G1 X71.8 Y138.2 Z0.24 E3.049289181030393 F1200.0
G1 X71.8 Y61.8 Z0.24 E3.049289181030393 F1200.0
G1 X148.2 Y61.8 Z0.24 E3.049289181030393 F1200.0
G1 X148.2 Y138.2 Z0.24 E3.049289181030393 F1200.0
G1 X147.8 Y137.8 Z0.24 E0.02257772835293448 F1200.0
G1 X72.19999999999999 Y137.8 Z0.24 E3.0173594513860964 F1200.0
G1 X72.19999999999999 Y62.199999999999996 Z0.24 E3.0173594513860964 F1200.0
G1 X147.8 Y62.199999999999996 Z0.24 E3.0173594513860964 F1200.0
G1 X147.8 Y137.8 Z0.24 E3.0173594513860964 F1200.0
G1 X147.4 Y137.4 Z0.24 E0.022577728352936078 F1200.0
G1 X72.6 Y137.4 Z0.24 E2.9854297217417987 F1200.0
G1 X72.6 Y62.599999999999994 Z0.24 E2.9854297217417987 F1200.0
G1 X147.4 Y62.599999999999994 Z0.24 E2.9854297217417987 F1200.0
G1 X147.4 Y137.4 Z0.24 E2.9854297217417987 F1200.0
G1 X147.0 Y137.0 Z0.24 E0.022577728352936078 F1200.0
G1 X73.0 Y137.0 Z0.24 E2.953499992097501 F1200.0
G1 X73.0 Y62.99999999999999 Z0.24 E2.953499992097501 F1200.0
G1 X147.0 Y62.99999999999999 Z0.24 E2.953499992097501 F1200.0
G1 X147.0 Y137.0 Z0.24 E2.953499992097501 F1200.0
G1 X146.60000000000002 Y136.60000000000002 Z0.24 E0.02257772835293448 F1200.0
G1 X73.39999999999999 Y136.60000000000002 Z0.24 E2.921570262453205 F1200.0
G1 X73.39999999999999 Y63.39999999999999 Z0.24 E2.921570262453205 F1200.0
G1 X146.60000000000002 Y63.39999999999999 Z0.24 E2.921570262453205 F1200.0
G1 X146.60000000000002 Y136.60000000000002 Z0.24 E2.921570262453205 F1200.0
G1 X146.20000000000002 Y136.20000000000002 Z0.24 E0.022577728352936078 F1200.0
G1 X73.79999999999998 Y136.20000000000002 Z0.24 E2.889640532808908 F1200.0
G1 X73.79999999999998 Y63.79999999999999 Z0.24 E2.889640532808908 F1200.0
G1 X146.20000000000002 Y63.79999999999999 Z0.24 E2.889640532808908 F1200.0
G1 X146.20000000000002 Y136.20000000000002 Z0.24 E2.889640532808908 F1200.0
G1 X145.8 Y135.8 Z0.24 E0.022577728352936078 F1200.0
G1 X74.19999999999999 Y135.8 Z0.24 E2.85771080316461 F1200.0
G1 X74.19999999999999 Y64.19999999999999 Z0.24 E2.85771080316461 F1200.0
G1 X145.8 Y64.19999999999999 Z0.24 E2.85771080316461 F1200.0
G1 X145.8 Y135.8 Z0.24 E2.85771080316461 F1200.0
G1 X145.4 Y135.4 Z0.24 E0.022577728352936078 F1200.0
G1 X74.6 Y135.4 Z0.24 E2.8257810735203126 F1200.0
G1 X74.6 Y64.6 Z0.24 E2.8257810735203126 F1200.0
G1 X145.4 Y64.6 Z0.24 E2.8257810735203126 F1200.0
G1 X145.4 Y135.4 Z0.24 E2.8257810735203126 F1200.0
G1 X145.0 Y135.0 Z0.24 E0.022577728352936078 F1200.0
G1 X74.99999999999999 Y135.0 Z0.24 E2.793851343876015 F1200.0
G1 X74.99999999999999 Y64.99999999999999 Z0.24 E2.793851343876015 F1200.0
G1 X145.0 Y64.99999999999999 Z0.24 E2.793851343876015 F1200.0
G1 X145.0 Y135.0 Z0.24 E2.793851343876015 F1200.0
G1 X144.60000000000002 Y134.60000000000002 Z0.24 E0.02257772835293448 F1200.0
G1 X75.39999999999998 Y134.60000000000002 Z0.24 E2.761921614231719 F1200.0
G1 X75.39999999999998 Y65.39999999999998 Z0.24 E2.761921614231719 F1200.0
G1 X144.60000000000002 Y65.39999999999998 Z0.24 E2.761921614231719 F1200.0
G1 X144.60000000000002 Y134.60000000000002 Z0.24 E2.761921614231719 F1200.0
G1 X144.20000000000002 Y134.20000000000002 Z0.24 E0.022577728352936078 F1200.0
G1 X75.79999999999998 Y134.20000000000002 Z0.24 E2.729991884587421 F1200.0
G1 X75.79999999999998 Y65.79999999999998 Z0.24 E2.729991884587421 F1200.0
G1 X144.20000000000002 Y65.79999999999998 Z0.24 E2.729991884587421 F1200.0
G1 X144.20000000000002 Y134.20000000000002 Z0.24 E2.729991884587421 F1200.0
G1 X143.8 Y133.8 Z0.24 E0.022577728352936078 F1200.0
G1 X76.19999999999999 Y133.8 Z0.24 E2.6980621549431234 F1200.0
G1 X76.19999999999999 Y66.19999999999999 Z0.24 E2.6980621549431234 F1200.0
G1 X143.8 Y66.19999999999999 Z0.24 E2.6980621549431234 F1200.0
G1 X143.8 Y133.8 Z0.24 E2.6980621549431234 F1200.0
G1 X143.40000000000003 Y133.40000000000003 Z0.24 E0.02257772835293448 F1200.0
G1 X76.59999999999998 Y133.40000000000003 Z0.24 E2.6661324252988274 F1200.0
G1 X76.59999999999998 Y66.59999999999998 Z0.24 E2.6661324252988274 F1200.0
G1 X143.40000000000003 Y66.59999999999998 Z0.24 E2.6661324252988274 F1200.0
G1 X143.40000000000003 Y133.40000000000003 Z0.24 E2.6661324252988274 F1200.0
G1 X143.00000000000003 Y133.00000000000003 Z0.24 E0.022577728352936078 F1200.0
G1 X76.99999999999997 Y133.00000000000003 Z0.24 E2.63420269565453 F1200.0
G1 X76.99999999999997 Y66.99999999999997 Z0.24 E2.63420269565453 F1200.0
G1 X143.00000000000003 Y66.99999999999997 Z0.24 E2.63420269565453 F1200.0
G1 X143.00000000000003 Y133.00000000000003 Z0.24 E2.63420269565453 F1200.0
G1 X142.60000000000002 Y132.60000000000002 Z0.24 E0.022577728352936078 F1200.0
G1 X77.39999999999998 Y132.60000000000002 Z0.24 E2.6022729660102324 F1200.0
G1 X77.39999999999998 Y67.39999999999998 Z0.24 E2.6022729660102324 F1200.0
G1 X142.60000000000002 Y67.39999999999998 Z0.24 E2.6022729660102324 F1200.0
G1 X142.60000000000002 Y132.60000000000002 Z0.24 E2.6022729660102324 F1200.0
G1 X142.20000000000002 Y132.20000000000002 Z0.24 E0.022577728352936078 F1200.0
G1 X77.79999999999998 Y132.20000000000002 Z0.24 E2.570343236365935 F1200.0
G1 X77.79999999999998 Y67.79999999999998 Z0.24 E2.570343236365935 F1200.0
G1 X142.20000000000002 Y67.79999999999998 Z0.24 E2.570343236365935 F1200.0
G1 X142.20000000000002 Y132.20000000000002 Z0.24 E2.570343236365935 F1200.0
G1 X141.80000000000004 Y131.80000000000004 Z0.24 E0.02257772835293448 F1200.0
G1 X78.19999999999997 Y131.80000000000004 Z0.24 E2.5384135067216387 F1200.0
G1 X78.19999999999997 Y68.19999999999997 Z0.24 E2.5384135067216387 F1200.0
G1 X141.80000000000004 Y68.19999999999997 Z0.24 E2.5384135067216387 F1200.0
G1 X141.80000000000004 Y131.80000000000004 Z0.24 E2.5384135067216387 F1200.0
G1 X141.40000000000003 Y131.40000000000003 Z0.24 E0.022577728352936078 F1200.0
G1 X78.59999999999997 Y131.40000000000003 Z0.24 E2.5064837770773414 F1200.0
G1 X78.59999999999997 Y68.59999999999997 Z0.24 E2.5064837770773414 F1200.0
G1 X141.40000000000003 Y68.59999999999997 Z0.24 E2.5064837770773414 F1200.0
G1 X141.40000000000003 Y131.40000000000003 Z0.24 E2.5064837770773414 F1200.0
G1 X141.00000000000003 Y131.00000000000003 Z0.24 E0.022577728352936078 F1200.0
G1 X78.99999999999997 Y131.00000000000003 Z0.24 E2.474554047433044 F1200.0
G1 X78.99999999999997 Y68.99999999999997 Z0.24 E2.474554047433044 F1200.0
G1 X141.00000000000003 Y68.99999999999997 Z0.24 E2.474554047433044 F1200.0
G1 X141.00000000000003 Y131.00000000000003 Z0.24 E2.474554047433044 F1200.0
G1 X140.60000000000002 Y130.60000000000002 Z0.24 E0.022577728352936078 F1200.0
G1 X79.39999999999996 Y130.60000000000002 Z0.24 E2.4426243177887463 F1200.0
G1 X79.39999999999996 Y69.39999999999996 Z0.24 E2.4426243177887463 F1200.0
G1 X140.60000000000002 Y69.39999999999996 Z0.24 E2.4426243177887463 F1200.0
G1 X140.60000000000002 Y130.60000000000002 Z0.24 E2.4426243177887463 F1200.0
G1 X140.20000000000005 Y130.20000000000005 Z0.24 E0.02257772835293448 F1200.0
G1 X79.79999999999997 Y130.20000000000005 Z0.24 E2.4106945881444495 F1200.0
G1 X79.79999999999997 Y69.79999999999997 Z0.24 E2.4106945881444495 F1200.0
G1 X140.20000000000005 Y69.79999999999997 Z0.24 E2.4106945881444495 F1200.0
G1 X140.20000000000005 Y130.20000000000005 Z0.24 E2.4106945881444495 F1200.0
G1 X139.80000000000004 Y129.80000000000004 Z0.24 E0.022577728352936078 F1200.0
G1 X80.19999999999996 Y129.80000000000004 Z0.24 E2.3787648585001526 F1200.0
G1 X80.19999999999996 Y70.19999999999996 Z0.24 E2.3787648585001526 F1200.0
G1 X139.80000000000004 Y70.19999999999996 Z0.24 E2.3787648585001526 F1200.0
G1 X139.80000000000004 Y129.80000000000004 Z0.24 E2.3787648585001526 F1200.0
G1 X139.40000000000003 Y129.40000000000003 Z0.24 E0.022577728352936078 F1200.0
G1 X80.59999999999997 Y129.40000000000003 Z0.24 E2.346835128855855 F1200.0
G1 X80.59999999999997 Y70.59999999999997 Z0.24 E2.346835128855855 F1200.0
G1 X139.40000000000003 Y70.59999999999997 Z0.24 E2.346835128855855 F1200.0
G1 X139.40000000000003 Y129.40000000000003 Z0.24 E2.346835128855855 F1200.0
G1 X139.00000000000003 Y129.00000000000003 Z0.24 E0.022577728352936078 F1200.0
G1 X80.99999999999996 Y129.00000000000003 Z0.24 E2.314905399211558 F1200.0
G1 X80.99999999999996 Y70.99999999999996 Z0.24 E2.314905399211558 F1200.0
G1 X139.00000000000003 Y70.99999999999996 Z0.24 E2.314905399211558 F1200.0
G1 X139.00000000000003 Y129.00000000000003 Z0.24 E2.314905399211558 F1200.0
G1 X138.60000000000005 Y128.60000000000005 Z0.24 E0.02257772835293448 F1200.0
G1 X81.39999999999996 Y128.60000000000005 Z0.24 E2.282975669567261 F1200.0
G1 X81.39999999999996 Y71.39999999999996 Z0.24 E2.282975669567261 F1200.0
G1 X138.60000000000005 Y71.39999999999996 Z0.24 E2.282975669567261 F1200.0
G1 X138.60000000000005 Y128.60000000000005 Z0.24 E2.282975669567261 F1200.0
G1 X138.20000000000005 Y128.20000000000005 Z0.24 E0.022577728352936078 F1200.0
G1 X81.79999999999995 Y128.20000000000005 Z0.24 E2.251045939922964 F1200.0
G1 X81.79999999999995 Y71.79999999999995 Z0.24 E2.251045939922964 F1200.0
G1 X138.20000000000005 Y71.79999999999995 Z0.24 E2.251045939922964 F1200.0
G1 X138.20000000000005 Y128.20000000000005 Z0.24 E2.251045939922964 F1200.0
G1 X137.80000000000004 Y127.80000000000004 Z0.24 E0.022577728352936078 F1200.0
G1 X82.19999999999996 Y127.80000000000004 Z0.24 E2.219116210278666 F1200.0
G1 X82.19999999999996 Y72.19999999999996 Z0.24 E2.219116210278666 F1200.0
G1 X137.80000000000004 Y72.19999999999996 Z0.24 E2.219116210278666 F1200.0
G1 X137.80000000000004 Y127.80000000000004 Z0.24 E2.219116210278666 F1200.0
G1 X137.40000000000003 Y127.40000000000005 Z0.24 E0.022577728352935676 F1200.0
G1 X82.59999999999995 Y127.40000000000005 Z0.24 E2.187186480634369 F1200.0
G1 X82.59999999999995 Y72.59999999999995 Z0.24 E2.1871864806343697 F1200.0
G1 X137.40000000000003 Y72.59999999999995 Z0.24 E2.187186480634369 F1200.0
G1 X137.40000000000003 Y127.40000000000005 Z0.24 E2.1871864806343697 F1200.0
G1 X137.00000000000006 Y127.00000000000004 Z0.24 E0.022577728352935277 F1200.0
G1 X82.99999999999996 Y127.00000000000004 Z0.24 E2.1552567509900724 F1200.0
G1 X82.99999999999996 Y72.99999999999996 Z0.24 E2.155256750990072 F1200.0
G1 X137.00000000000006 Y72.99999999999996 Z0.24 E2.1552567509900724 F1200.0
G1 X137.00000000000006 Y127.00000000000004 Z0.24 E2.155256750990072 F1200.0
G1 X136.60000000000005 Y126.60000000000005 Z0.24 E0.022577728352935676 F1200.0
G1 X83.39999999999995 Y126.60000000000005 Z0.24 E2.123327021345775 F1200.0
G1 X83.39999999999995 Y73.39999999999995 Z0.24 E2.123327021345775 F1200.0
G1 X136.60000000000005 Y73.39999999999995 Z0.24 E2.123327021345775 F1200.0
G1 X136.60000000000005 Y126.60000000000005 Z0.24 E2.123327021345775 F1200.0
G1 X136.20000000000005 Y126.20000000000005 Z0.24 E0.022577728352936078 F1200.0
G1 X83.79999999999995 Y126.20000000000005 Z0.24 E2.091397291701477 F1200.0
G1 X83.79999999999995 Y73.79999999999995 Z0.24 E2.091397291701477 F1200.0
G1 X136.20000000000005 Y73.79999999999995 Z0.24 E2.091397291701477 F1200.0
G1 X136.20000000000005 Y126.20000000000005 Z0.24 E2.091397291701477 F1200.0
G1 X135.80000000000004 Y125.80000000000005 Z0.24 E0.022577728352935676 F1200.0
G1 X84.19999999999995 Y125.80000000000005 Z0.24 E2.0594675620571805 F1200.0
G1 X84.19999999999995 Y74.19999999999995 Z0.24 E2.0594675620571805 F1200.0
G1 X135.80000000000004 Y74.19999999999995 Z0.24 E2.0594675620571805 F1200.0
G1 X135.80000000000004 Y125.80000000000005 Z0.24 E2.0594675620571805 F1200.0
G1 X135.40000000000006 Y125.40000000000005 Z0.24 E0.022577728352935277 F1200.0
G1 X84.59999999999995 Y125.40000000000005 Z0.24 E2.0275378324128837 F1200.0
G1 X84.59999999999995 Y74.59999999999995 Z0.24 E2.0275378324128828 F1200.0
G1 X135.40000000000006 Y74.59999999999995 Z0.24 E2.0275378324128837 F1200.0
G1 X135.40000000000006 Y125.40000000000005 Z0.24 E2.0275378324128828 F1200.0
G1 X135.00000000000006 Y125.00000000000006 Z0.24 E0.022577728352935676 F1200.0
G1 X84.99999999999994 Y125.00000000000006 Z0.24 E1.9956081027685861 F1200.0
G1 X84.99999999999994 Y74.99999999999994 Z0.24 E1.9956081027685861 F1200.0
G1 X135.00000000000006 Y74.99999999999994 Z0.24 E1.9956081027685861 F1200.0
G1 X135.00000000000006 Y125.00000000000006 Z0.24 E1.9956081027685861 F1200.0
G1 X134.60000000000005 Y124.60000000000005 Z0.24 E0.022577728352936078 F1200.0
G1 X85.39999999999995 Y124.60000000000005 Z0.24 E1.9636783731242886 F1200.0
G1 X85.39999999999995 Y75.39999999999995 Z0.24 E1.9636783731242886 F1200.0
G1 X134.60000000000005 Y75.39999999999995 Z0.24 E1.9636783731242886 F1200.0
G1 X134.60000000000005 Y124.60000000000005 Z0.24 E1.9636783731242886 F1200.0
G1 X134.20000000000005 Y124.20000000000006 Z0.24 E0.022577728352935676 F1200.0
G1 X85.79999999999994 Y124.20000000000006 Z0.24 E1.931748643479991 F1200.0
G1 X85.79999999999994 Y75.79999999999994 Z0.24 E1.9317486434799918 F1200.0
G1 X134.20000000000005 Y75.79999999999994 Z0.24 E1.931748643479991 F1200.0
G1 X134.20000000000005 Y124.20000000000006 Z0.24 E1.9317486434799918 F1200.0
G1 X133.80000000000007 Y123.80000000000005 Z0.24 E0.022577728352935277 F1200.0
G1 X86.19999999999995 Y123.80000000000005 Z0.24 E1.8998189138356947 F1200.0
G1 X86.19999999999995 Y76.19999999999995 Z0.24 E1.8998189138356945 F1200.0
G1 X133.80000000000007 Y76.19999999999995 Z0.24 E1.8998189138356947 F1200.0
G1 X133.80000000000007 Y123.80000000000005 Z0.24 E1.8998189138356945 F1200.0
G1 X133.40000000000006 Y123.40000000000006 Z0.24 E0.022577728352935676 F1200.0
G1 X86.59999999999994 Y123.40000000000006 Z0.24 E1.8678891841913976 F1200.0
G1 X86.59999999999994 Y76.59999999999994 Z0.24 E1.8678891841913976 F1200.0
G1 X133.40000000000006 Y76.59999999999994 Z0.24 E1.8678891841913976 F1200.0
G1 X133.40000000000006 Y123.40000000000006 Z0.24 E1.8678891841913976 F1200.0
G1 X133.00000000000006 Y123.00000000000006 Z0.24 E0.022577728352936078 F1200.0
G1 X86.99999999999994 Y123.00000000000006 Z0.24 E1.8359594545470994 F1200.0
G1 X86.99999999999994 Y76.99999999999994 Z0.24 E1.8359594545470994 F1200.0
G1 X133.00000000000006 Y76.99999999999994 Z0.24 E1.8359594545470994 F1200.0
G1 X133.00000000000006 Y123.00000000000006 Z0.24 E1.8359594545470994 F1200.0
G1 X132.60000000000005 Y122.60000000000007 Z0.24 E0.022577728352935676 F1200.0
G1 X87.39999999999993 Y122.60000000000007 Z0.24 E1.8040297249028026 F1200.0
