;FLAVOR:Marlin 
;Layer height: 0.12 
;Generated with Cura_SteamEngine 4.9.0 
M140 S70.0
M105 
M190 S70.0
M104 S210.0
M105 
M109 S210.0
M83 ;relative extrusion mode 
; Ender 3 Custom Start G-code 
G92 E0 ; Reset Extruder 
G28 ; Home all axes 
G1 Z2.0 F3000 ; Move Z Axis up little to prevent scratching of Heat Bed 
G1 X0.1 Y20 Z0.3 F5000.0 ; Move to start position 
G1 X0.1 Y200.0 Z0.3 F1500.0 E15 ; Draw the first line 
G1 X0.4 Y200.0 Z0.3 F5000.0 ; Move to side a little 
G1 X0.4 Y20 Z0.3 F1500.0 E15 ; Draw the second line 
G92 E0 ; Reset Extruder 
G1 Z2.0 F3000 ; Move Z Axis up little to prevent scratching of Heat Bed 
G1 X5 Y20 Z0.3 F5000.0 ; Move over to prevent blob squish 
G92 E0 
G92 E0 
G1 F3000 E-8 
M104 S210.0
M140 S70.0
G0 X10.0 Y0 Z0.24 F1200.0
G1 E8
G1 X9.980267284282716 Y0.6279051952931337 Z0.24 E0.02507342613216819 F1200.0
G1 X9.921147013144779 Y1.2533323356430426 Z0.24 E0.0250734261321682 F1200.0
G1 X9.822872507286887 Y1.8738131458572462 Z0.24 E0.02507342613216819 F1200.0
G1 X9.68583161128631 Y2.486898871648548 Z0.24 E0.025073426132168206 F1200.0
G1 X9.510565162951535 Y3.090169943749474 Z0.24 E0.025073426132168182 F1200.0
G1 X9.297764858882513 Y3.6812455268467796 Z0.24 E0.025073426132168206 F1200.0
G1 X9.048270524660197 Y4.257792915650727 Z0.24 E0.02507342613216816 F1200.0
G1 X8.763066800438637 Y4.817536741017153 Z0.24 E0.025073426132168192 F1200.0
G1 X8.443279255020151 Y5.358267949789966 Z0.24 E0.025073426132168192 F1200.0
G1 X8.090169943749475 Y5.877852522924732 Z0.24 E0.025073426132168206 F1200.0
G1 X7.705132427757891 Y6.3742398974868975 Z0.24 E0.025073426132168224 F1200.0
G1 X7.289686274214116 Y6.845471059286887 Z0.24 E0.025073426132168144 F1200.0
G1 X6.845471059286887 Y7.289686274214114 Z0.24 E0.025073426132168158 F1200.0
G1 X6.3742398974868975 Y7.705132427757892 Z0.24 E0.025073426132168217 F1200.0
G1 X5.877852522924732 Y8.090169943749475 Z0.24 E0.0250734261321682 F1200.0
G1 X5.3582679497899655 Y8.443279255020151 Z0.24 E0.025073426132168234 F1200.0
G1 X4.817536741017151 Y8.763066800438637 Z0.24 E0.025073426132168224 F1200.0
G1 X4.257792915650727 Y9.048270524660197 Z0.24 E0.025073426132168133 F1200.0
G1 X3.6812455268467787 Y9.297764858882514 Z0.24 E0.025073426132168227 F1200.0
G1 X3.0901699437494745 Y9.510565162951535 Z0.24 E0.025073426132168126 F1200.0
G1 X2.48689887164855 Y9.68583161128631 Z0.24 E0.025073426132168133 F1200.0
G1 X1.8738131458572451 Y9.822872507286887 Z0.24 E0.025073426132168314 F1200.0
G1 X1.2533323356430426 Y9.921147013144779 Z0.24 E0.025073426132168144 F1200.0
G1 X0.627905195293133 Y9.980267284282716 Z0.24 E0.025073426132168227 F1200.0
G1 X0 Y10.0 Z0.24 E0.02507342613216816 F1200.0
G1 X-0.6279051952931318 Y9.980267284282716 Z0.24 E0.025073426132168116 F1200.0
G1 X-1.2533323356430437 Y9.921147013144777 Z0.24 E0.02507342613216832 F1200.0
G1 X-1.873813145857246 Y9.822872507286887 Z0.24 E0.025073426132168126 F1200.0
G1 X-2.4868988716485485 Y9.68583161128631 Z0.24 E0.025073426132168227 F1200.0
G1 X-3.0901699437494736 Y9.510565162951536 Z0.24 E0.025073426132168133 F1200.0
G1 X-3.6812455268467774 Y9.297764858882514 Z0.24 E0.02507342613216814 F1200.0
G1 X-4.257792915650727 Y9.048270524660195 Z0.24 E0.0250734261321683 F1200.0
G1 X-4.81753674101715 Y8.763066800438637 Z0.24 E0.025073426132168068 F1200.0
G1 X-5.358267949789969 Y8.44327925502015 Z0.24 E0.02507342613216841 F1200.0
G1 X-5.87785252292473 Y8.090169943749475 Z0.24 E0.025073426132168022 F1200.0
G1 X-6.3742398974868975 Y7.705132427757892 Z0.24 E0.025073426132168255 F1200.0
G1 X-6.845471059286884 Y7.289686274214118 Z0.24 E0.02507342613216802 F1200.0
G1 X-7.289686274214117 Y6.845471059286885 Z0.24 E0.025073426132168453 F1200.0
G1 X-7.705132427757894 Y6.374239897486895 Z0.24 E0.025073426132168192 F1200.0
G1 X-8.090169943749473 Y5.877852522924733 Z0.24 E0.025073426132168 F1200.0
G1 X-8.443279255020151 Y5.358267949789966 Z0.24 E0.025073426132168272 F1200.0
G1 X-8.763066800438635 Y4.817536741017156 Z0.24 E0.025073426132168068 F1200.0
G1 X-9.048270524660197 Y4.257792915650725 Z0.24 E0.025073426132168383 F1200.0
G1 X-9.297764858882514 Y3.6812455268467774 Z0.24 E0.025073426132168206 F1200.0
G1 X-9.510565162951535 Y3.090169943749475 Z0.24 E0.02507342613216806 F1200.0
G1 X-9.68583161128631 Y2.486898871648548 Z0.24 E0.025073426132168224 F1200.0
G1 X-9.822872507286887 Y1.8738131458572502 Z0.24 E0.02507342613216805 F1200.0
G1 X-9.921147013144779 Y1.2533323356430408 Z0.24 E0.025073426132168414 F1200.0
G1 X-9.980267284282716 Y0.6279051952931314 Z0.24 E0.025073426132168224 F1200.0
G1 X-10.0 Y0 Z0.24 E0.025073426132168095 F1200.0
G1 X-9.980267284282716 Y-0.6279051952931335 Z0.24 E0.025073426132168182 F1200.0
G1 X-9.921147013144779 Y-1.2533323356430384 Z0.24 E0.02507342613216804 F1200.0
G1 X-9.822872507286887 Y-1.8738131458572478 Z0.24 E0.025073426132168414 F1200.0
G1 X-9.68583161128631 Y-2.4868988716485503 Z0.24 E0.025073426132168227 F1200.0
G1 X-9.510565162951536 Y-3.0901699437494727 Z0.24 E0.02507342613216803 F1200.0
G1 X-9.297764858882514 Y-3.681245526846779 Z0.24 E0.025073426132168238 F1200.0
G1 X-9.048270524660197 Y-4.257792915650723 Z0.24 E0.02507342613216805 F1200.0
G1 X-8.763066800438637 Y-4.817536741017154 Z0.24 E0.025073426132168383 F1200.0
G1 X-8.44327925502015 Y-5.358267949789967 Z0.24 E0.025073426132168227 F1200.0
G1 X-8.090169943749475 Y-5.87785252292473 Z0.24 E0.025073426132168078 F1200.0
G1 X-7.705132427757892 Y-6.374239897486897 Z0.24 E0.025073426132168227 F1200.0
G1 X-7.289686274214119 Y-6.845471059286884 Z0.24 E0.025073426132168022 F1200.0
G1 X-6.845471059286886 Y-7.289686274214116 Z0.24 E0.025073426132168404 F1200.0
G1 X-6.374239897486895 Y-7.705132427757894 Z0.24 E0.025073426132168272 F1200.0
G1 X-5.877852522924733 Y-8.090169943749473 Z0.24 E0.025073426132168 F1200.0
G1 X-5.358267949789971 Y-8.443279255020148 Z0.24 E0.02507342613216805 F1200.0
G1 X-4.817536741017153 Y-8.763066800438637 Z0.24 E0.025073426132168414 F1200.0
G1 X-4.257792915650722 Y-9.048270524660198 Z0.24 E0.025073426132168414 F1200.0
G1 X-3.6812455268467783 Y-9.297764858882514 Z0.24 E0.02507342613216802 F1200.0
G1 X-3.0901699437494754 Y-9.510565162951535 Z0.24 E0.025073426132168078 F1200.0
G1 X-2.486898871648553 Y-9.685831611286309 Z0.24 E0.02507342613216803 F1200.0
G1 X-1.8738131458572462 Y-9.822872507286887 Z0.24 E0.02507342613216841 F1200.0
G1 X-1.2533323356430373 Y-9.921147013144779 Z0.24 E0.025073426132168397 F1200.0
G1 X-0.6279051952931409 Y-9.980267284282716 Z0.24 E0.025073426132167696 F1200.0
G1 X0 Y-10.0 Z0.24 E0.025073426132168477 F1200.0
G1 X0.6279051952931372 Y-9.980267284282716 Z0.24 E0.025073426132168328 F1200.0
G1 X1.2533323356430424 Y-9.921147013144779 Z0.24 E0.02507342613216805 F1200.0
G1 X1.8738131458572513 Y-9.822872507286887 Z0.24 E0.025073426132168397 F1200.0
G1 X2.486898871648541 Y-9.685831611286313 Z0.24 E0.025073426132167714 F1200.0
G1 X3.0901699437494723 Y-9.510565162951536 Z0.24 E0.025073426132168387 F1200.0
G1 X3.6812455268467827 Y-9.297764858882513 Z0.24 E0.02507342613216841 F1200.0
G1 X4.257792915650726 Y-9.048270524660197 Z0.24 E0.02507342613216802 F1200.0
G1 X4.8175367410171575 Y-8.763066800438633 Z0.24 E0.02507342613216845 F1200.0
G1 X5.35826794978996 Y-8.443279255020155 Z0.24 E0.02507342613216768 F1200.0
G1 X5.877852522924729 Y-8.090169943749476 Z0.24 E0.025073426132168362 F1200.0
G1 X6.3742398974869 Y-7.70513242775789 Z0.24 E0.025073426132168453 F1200.0
G1 X6.845471059286886 Y-7.289686274214116 Z0.24 E0.02507342613216802 F1200.0
G1 X7.289686274214119 Y-6.845471059286883 Z0.24 E0.02507342613216843 F1200.0
G1 X7.7051324277578885 Y-6.374239897486903 Z0.24 E0.025073426132167714 F1200.0
G1 X8.090169943749473 Y-5.877852522924734 Z0.24 E0.025073426132168355 F1200.0
G1 X8.443279255020151 Y-5.358267949789964 Z0.24 E0.025073426132168394 F1200.0
G1 X8.763066800438637 Y-4.817536741017153 Z0.24 E0.0250734261321681 F1200.0
G1 X9.048270524660197 Y-4.257792915650722 Z0.24 E0.025073426132168383 F1200.0
G1 X9.29776485888251 Y-3.681245526846787 Z0.24 E0.02507342613216766 F1200.0
G1 X9.510565162951535 Y-3.0901699437494767 Z0.24 E0.02507342613216841 F1200.0
G1 X9.685831611286313 Y-2.486898871648545 Z0.24 E0.02507342613216843 F1200.0
G1 X9.822872507286887 Y-1.873813145857247 Z0.24 E0.02507342613216804 F1200.0
G1 X9.921147013144779 Y-1.253332335643038 Z0.24 E0.025073426132168397 F1200.0
G1 X9.980267284282716 Y-0.6279051952931415 Z0.24 E0.0250734261321677 F1200.0
G1 X10.0 Y0 Z0.24 E0.0250734261321685 F1200.0
G1 X10.0 Y0 Z0.24 E0.0 F1200.0
