;FLAVOR:Marlin 
;Layer height: 0.12 
;Generated with Cura_SteamEngine 4.9.0 
M140 S70.0
M105 
M190 S70.0
M104 S210.0
M105 
M109 S210.0
M83 ;relative extrusion mode 
; Ender 3 Custom Start G-code 
G92 E0 ; Reset Extruder 
G28 ; Home all axes 
G1 Z2.0 F3000 ; Move Z Axis up little to prevent scratching of Heat Bed 
G1 X0.1 Y20 Z0.3 F5000.0 ; Move to start position 
G1 X0.1 Y200.0 Z0.3 F1500.0 E15 ; Draw the first line 
G1 X0.4 Y200.0 Z0.3 F5000.0 ; Move to side a little 
G1 X0.4 Y20 Z0.3 F1500.0 E15 ; Draw the second line 
G92 E0 ; Reset Extruder 
G1 Z2.0 F3000 ; Move Z Axis up little to prevent scratching of Heat Bed 
G1 X5 Y20 Z0.3 F5000.0 ; Move over to prevent blob squish 
G92 E0 
G92 E0 
G1 F3000 E-8 
M104 S210.0
M140 S70.0
G0 X75.0 Y50 Z0.24 F1200.0
G1 E8
G1 X74.21457902821578 Y56.21724717912137 Z0.24 E0.25011601644709636 F1200.0
G1 X71.9076670010966 Y62.04384185254288 Z0.24 E0.2501160164470961 F1200.0
G1 X68.22421568553528 Y67.11367764821722 Z0.24 E0.2501160164470966 F1200.0
G1 X63.39566987447491 Y71.10819813755037 Z0.24 E0.25011601644709613 F1200.0
G1 X57.72542485937369 Y73.77641290737884 Z0.24 E0.2501160164470961 F1200.0
G1 X51.56976298823283 Y74.9506682107068 Z0.24 E0.2501160164470965 F1200.0
G1 X45.31546713535688 Y74.55718126821722 Z0.24 E0.2501160164470962 F1200.0
G1 X39.35551771087318 Y72.62067631165048 Z0.24 E0.25011601644709647 F1200.0
G1 X34.06440025628275 Y69.26283106939474 Z0.24 E0.2501160164470961 F1200.0
G1 X29.774575140626318 Y64.69463130731182 Z0.24 E0.25011601644709625 F1200.0
G1 X26.755587852793713 Y59.20311381711694 Z0.24 E0.25011601644709647 F1200.0
G1 X25.197132467138054 Y53.1333308391076 Z0.24 E0.2501160164470962 F1200.0
G1 X25.197132467138054 Y46.86666916089241 Z0.24 E0.25011601644709547 F1200.0
G1 X26.755587852793713 Y40.79688618288305 Z0.24 E0.25011601644709675 F1200.0
G1 X29.774575140626315 Y35.30536869268818 Z0.24 E0.2501160164470961 F1200.0
G1 X34.06440025628276 Y30.737168930605264 Z0.24 E0.2501160164470966 F1200.0
G1 X39.355517710873194 Y27.379323688349505 Z0.24 E0.2501160164470966 F1200.0
G1 X45.31546713535688 Y25.442818731782783 Z0.24 E0.2501160164470957 F1200.0
G1 X51.569762988232846 Y25.049331789293213 Z0.24 E0.25011601644709675 F1200.0
G1 X57.72542485937368 Y26.22358709262116 Z0.24 E0.25011601644709563 F1200.0
G1 X63.3956698744749 Y28.89180186244961 Z0.24 E0.2501160164470956 F1200.0
G1 X68.2242156855353 Y32.886322351782795 Z0.24 E0.2501160164470977 F1200.0
G1 X71.9076670010966 Y37.95615814745712 Z0.24 E0.25011601644709575 F1200.0
G1 X74.21457902821578 Y43.782752820878635 Z0.24 E0.2501160164470964 F1200.0
G1 X75.0 Y50 Z0.24 E0.2501160164470961 F1200.0
G1 X75.0 Y50 Z0.24 E0.0 F1200.0
